assets/stickers/emoticons/stickers/imgly_sticker_emoticons_tongue_out_wink.svg

<svg height="58" viewBox="0 0 62 58" width="62" xmlns="http://www.w3.org/2000/svg"><g fill="none"><path d="m61.3 34.5c0 13-11.9 23.5-30.3 23.5s-30.3-10.5-30.3-23.5 11.9-32.5 30.3-32.5 30.3 19.5 30.3 32.5z" fill="#f7910b"/><path d="m61.3 34.5c0 13-11.9 19.5-30.3 19.5s-30.3-6.5-30.3-19.5 11.9-34.5 30.3-34.5 30.3 21.5 30.3 34.5z" fill="#f7910b"/><path d="m31 0c18.4 0 30.3 21.5 30.3 34.5s-11.9 19.5-30.3 19.5" fill="#f9a908"/><path d="m61.3 34.5c0 13-11.9 19.5-30.3 19.5s-30.3-6.5-30.3-19.5 11.9-32.5 30.3-32.5 30.3 19.5 30.3 32.5z" fill="#f9a908"/><path d="m.7 34.5c0-13 11.9-32.5 30.3-32.5" fill="#f9c55d"/><path d="m31 2c18.4 0 30.3 19.5 30.3 32.5s-11.9 23.5-30.3 23.5" fill="#f7910b"/><path d="m31 2c18.4 0 30.3 19.5 30.3 32.5" fill="#ea7103"/><g transform="translate(19 13)"><path d="m5.8 5.1c-.6.7-1.4-.6-2.8-1.8s-2.8-1.8-2.2-2.4c.6-.7 2.1-.3 3.5.9 1.4 1.1 2 2.6 1.5 3.3z" fill="#19bca4"/><path d="m5.8 5.1c-.6.7-1.4-.6-2.8-1.8s-2.8-1.8-2.2-2.4" fill="#109da0"/></g><g transform="translate(37 11)"><path d="m.1 2.9c.2.8 1.5.1 3.3-.4 1.8-.4 3.3-.4 3.1-1.2s-1.8-1.2-3.6-.7c-1.8.4-3 1.4-2.8 2.3z" fill="#19bca4"/><path d="m.1 2.9c.2.8 1.5.1 3.3-.4 1.8-.4 3.3-.4 3.1-1.2" fill="#109da0"/></g><ellipse cx="9.3" cy="31.5" fill="#f7910b" rx="1" ry="1"/><ellipse cx="4.8" cy="33.5" fill="#f7910b" rx="1.1" ry="1.1"/><ellipse cx="7.8" cy="29.5" fill="#f7910b" rx="1" ry="1"/><circle cx="12.4" cy="31.3" fill="#f7910b" r="1"/><g fill="#f9a908"><circle cx="51.6" cy="31.8" r="1"/><circle cx="54.1" cy="33.2" r="1"/><circle cx="48.8" cy="24.4" r="1"/><circle cx="48.3" cy="36" r="1.3"/><circle cx="55.5" cy="36.1" r="1"/></g><ellipse cx="8.3" cy="35.5" fill="#f7910b" rx="1" ry="1"/><circle cx="9.1" cy="27.1" fill="#f7910b" r="1"/><ellipse cx="3.8" cy="13.3" fill="#f9a908" rx="1.1" ry="1.1"/><ellipse cx="7" cy="9.8" fill="#f9a908" rx="1" ry="1"/><circle cx="58.2" cy="15.7" fill="#f9a908" r="1"/><g transform="translate(14 19)"><path d="m8.9 6c-.4-.1-.8-.3-1.1-.7-1.1-1.6-3.4-2-5-.9-.8.5-1.8.3-2.3-.4s-.3-1.8.4-2.3c3.1-2.2 7.4-1.4 9.6 1.8.5.7.3 1.8-.4 2.3-.4.2-.8.2-1.2.2z" fill="#1e4784"/><path d="m10.5 3.4c.5.7.3 1.8-.4 2.3-.4.3-.8.3-1.2.3-.4-.1-.8-.3-1.1-.7-1.1-1.6-3.4-2-5-.9-.8.5-1.8.3-2.3-.4s-.3-1.8.4-2.3" fill="#02243e"/></g><g transform="translate(37 18)"><ellipse cx="3.8" cy="4.7" fill="#d87703" rx="3.5" ry="3.5"/><ellipse cx="3.8" cy="3.7" fill="#1e4784" rx="3.5" ry="3.5"/><path d="m3.8.2c1.9 0 3.5 1.6 3.5 3.5s-1.6 3.5-3.5 3.5" fill="#00233f"/></g><ellipse cx="57.4" cy="12.8" fill="#f9a908" rx="1" ry="1"/><circle cx="60" cy="13.3" fill="#f9a908" r="1"/><ellipse cx="5" cy="16.3" fill="#f9a908" rx="1" ry="1"/><g transform="translate(11 25)"><path d="m15.8 2.8c0 1.2-3.5.7-7.8.7s-7.8.6-7.8-.7c0-1.2 3.5-2.2 7.8-2.2s7.8 1 7.8 2.2z" fill="#f9c55d"/><path d="m39.8 2.8c0 1.2-3.5.7-7.8.7s-7.8.6-7.8-.7c0-1.2 3.5-2.2 7.8-2.2s7.8 1 7.8 2.2z" fill="#f9a908"/></g><g transform="translate(19 29)"><path d="m19.4 14.8c0 2.6-6.1 12.6-10.2 12.6s-4.5-10-4.5-12.6" fill="#f7910b"/><path d="m23.9.9c0 6.8-5.3 12.3-11.9 12.3s-11.9-5.5-11.9-12.3" fill="#c42260"/><path d="m23.9.9c0 2.3-5.3 4.1-11.9 4.1s-11.9-1.8-11.9-4.1" fill="#99144a"/><path d="m12 13.2c3.7 0 6.9-1.7 9.1-4.4-1.4-1.5-3.3-2.5-5.5-2.5-1.3 0-2.6.4-3.6 1-1.1-.6-2.3-1-3.6-1-2.2 0-4.1 1-5.5 2.5 2.2 2.6 5.4 4.4 9.1 4.4z" fill="#e2446e"/><path d="m20.8 8.9c0 2.1-3.9 16.3-8.8 16.3s-8.8-14.2-8.8-16.3 3.9-.6 8.8-.6 8.8-1.4 8.8.6z" fill="#e2446e"/><g fill="#ef86ae"><path d="m7 16.6c-.4.1-1.1-1.4-1.6-3.3s-.5-3.5-.2-3.7c.4-.2.7-.3 1.2 1.6s1 5.3.6 5.4z"/><path d="m13.1 16.2c-.4 0-.7-1.6-.7-3.6s.3-3.5.7-3.6c.5-.1.8-.1.8 1.8-.1 2-.4 5.4-.8 5.4z"/></g></g></g></svg>

<?xml version="1.0" encoding="UTF-8"?>
<svg width="62px" height="58px" viewBox="0 0 62 58" version="1.1" xmlns="http://www.w3.org/2000/svg" xmlns:xlink="http://www.w3.org/1999/xlink">
    <!-- Generator: Sketch 43.1 (39012) - http://www.bohemiancoding.com/sketch -->
    <title>imgly_sticker_emoticons_tongue_out_wink</title>
    <desc>Created with Sketch.</desc>
    <defs></defs>
    <g id="Page-1" stroke="none" stroke-width="1" fill="none" fill-rule="evenodd">
        <g id="tongue_out_wink" fill-rule="nonzero">
            <path d="M61.3,34.5 C61.3,47.5 49.4,58 31,58 C12.6,58 0.7,47.5 0.7,34.5 C0.7,21.5 12.6,2 31,2 C49.4,2 61.3,21.5 61.3,34.5 Z" id="Shape" fill="#F7910B"></path>
            <path d="M61.3,34.5 C61.3,47.5 49.4,54 31,54 C12.6,54 0.7,47.5 0.7,34.5 C0.7,21.5 12.6,0 31,0 C49.4,0 61.3,21.5 61.3,34.5 Z" id="Shape" fill="#F7910B"></path>
            <path d="M31,0 C49.4,0 61.3,21.5 61.3,34.5 C61.3,47.5 49.4,54 31,54" id="Shape" fill="#F9A908"></path>
            <path d="M61.3,34.5 C61.3,47.5 49.4,54 31,54 C12.6,54 0.7,47.5 0.7,34.5 C0.7,21.5 12.6,2 31,2 C49.4,2 61.3,21.5 61.3,34.5 Z" id="Shape" fill="#F9A908"></path>
            <path d="M0.7,34.5 C0.7,21.5 12.6,2 31,2" id="Shape" fill="#F9C55D"></path>
            <path d="M31,2 C49.4,2 61.3,21.5 61.3,34.5 C61.3,47.5 49.4,58 31,58" id="Shape" fill="#F7910B"></path>
            <path d="M31,2 C49.4,2 61.3,21.5 61.3,34.5" id="Shape" fill="#EA7103"></path>
            <g id="Group" transform="translate(19.000000, 11.000000)">
                <g transform="translate(0.000000, 2.000000)" id="Shape">
                    <path d="M5.8,5.1 C5.2,5.8 4.4,4.5 3,3.3 C1.6,2.1 0.2,1.5 0.8,0.9 C1.4,0.2 2.9,0.6 4.3,1.8 C5.7,2.9 6.3,4.4 5.8,5.1 Z" fill="#19BCA4"></path>
                    <path d="M5.8,5.1 C5.2,5.8 4.4,4.5 3,3.3 C1.6,2.1 0.2,1.5 0.8,0.9" fill="#109DA0"></path>
                </g>
                <g transform="translate(18.000000, 0.000000)" id="Shape">
                    <path d="M0.1,2.9 C0.3,3.7 1.6,3 3.4,2.5 C5.2,2.1 6.7,2.1 6.5,1.3 C6.3,0.5 4.7,0.1 2.9,0.6 C1.1,1 -0.1,2 0.1,2.9 Z" fill="#19BCA4"></path>
                    <path d="M0.1,2.9 C0.3,3.7 1.6,3 3.4,2.5 C5.2,2.1 6.7,2.1 6.5,1.3" fill="#109DA0"></path>
                </g>
            </g>
            <ellipse id="Oval" fill="#F7910B" cx="9.3" cy="31.5" rx="1" ry="1"></ellipse>
            <ellipse id="Oval" fill="#F7910B" cx="4.8" cy="33.5" rx="1.1" ry="1.1"></ellipse>
            <ellipse id="Oval" fill="#F7910B" cx="7.8" cy="29.5" rx="1" ry="1"></ellipse>
            <circle id="Oval" fill="#F7910B" cx="12.4" cy="31.3" r="1"></circle>
            <circle id="Oval" fill="#F9A908" cx="51.6" cy="31.8" r="1"></circle>
            <circle id="Oval" fill="#F9A908" cx="54.1" cy="33.2" r="1"></circle>
            <circle id="Oval" fill="#F9A908" cx="48.8" cy="24.4" r="1"></circle>
            <circle id="Oval" fill="#F9A908" cx="48.3" cy="36" r="1.3"></circle>
            <circle id="Oval" fill="#F9A908" cx="55.5" cy="36.1" r="1"></circle>
            <ellipse id="Oval" fill="#F7910B" cx="8.3" cy="35.5" rx="1" ry="1"></ellipse>
            <circle id="Oval" fill="#F7910B" cx="9.1" cy="27.1" r="1"></circle>
            <ellipse id="Oval" fill="#F9A908" cx="3.8" cy="13.3" rx="1.1" ry="1.1"></ellipse>
            <ellipse id="Oval" fill="#F9A908" cx="7" cy="9.8" rx="1" ry="1"></ellipse>
            <circle id="Oval" fill="#F9A908" cx="58.2" cy="15.7" r="1"></circle>
            <g id="Group" transform="translate(14.000000, 18.000000)">
                <g transform="translate(0.000000, 1.000000)" id="Shape">
                    <path d="M8.9,6 C8.5,5.9 8.1,5.7 7.8,5.3 C6.7,3.7 4.4,3.3 2.8,4.4 C2,4.9 1,4.7 0.5,4 C1.74860126e-15,3.3 0.2,2.2 0.9,1.7 C4,-0.5 8.3,0.3 10.5,3.5 C11,4.2 10.8,5.3 10.1,5.8 C9.7,6 9.3,6 8.9,6 Z" fill="#1E4784"></path>
                    <path d="M10.5,3.4 C11,4.1 10.8,5.2 10.1,5.7 C9.7,6 9.3,6 8.9,6 C8.5,5.9 8.1,5.7 7.8,5.3 C6.7,3.7 4.4,3.3 2.8,4.4 C2,4.9 1,4.7 0.5,4 C1.74860126e-15,3.3 0.2,2.2 0.9,1.7" fill="#02243E"></path>
                </g>
                <g transform="translate(23.000000, 0.000000)">
                    <ellipse id="Oval" fill="#D87703" cx="3.8" cy="4.7" rx="3.5" ry="3.5"></ellipse>
                    <ellipse id="Oval" fill="#1E4784" cx="3.8" cy="3.7" rx="3.5" ry="3.5"></ellipse>
                    <path d="M3.8,0.2 C5.7,0.2 7.3,1.8 7.3,3.7 C7.3,5.6 5.7,7.2 3.8,7.2" id="Shape" fill="#00233F"></path>
                </g>
            </g>
            <ellipse id="Oval" fill="#F9A908" cx="57.4" cy="12.8" rx="1" ry="1"></ellipse>
            <circle id="Oval" fill="#F9A908" cx="60" cy="13.3" r="1"></circle>
            <ellipse id="Oval" fill="#F9A908" cx="5" cy="16.3" rx="1" ry="1"></ellipse>
            <g id="Group" transform="translate(11.000000, 25.000000)">
                <path d="M15.8,2.8 C15.8,4 12.3,3.5 8,3.5 C3.7,3.5 0.2,4.1 0.2,2.8 C0.2,1.6 3.7,0.6 8,0.6 C12.3,0.6 15.8,1.6 15.8,2.8 Z" id="Shape" fill="#F9C55D"></path>
                <path d="M39.8,2.8 C39.8,4 36.3,3.5 32,3.5 C27.7,3.5 24.2,4.1 24.2,2.8 C24.2,1.6 27.7,0.6 32,0.6 C36.3,0.6 39.8,1.6 39.8,2.8 Z" id="Shape" fill="#F9A908"></path>
            </g>
            <g id="Group" transform="translate(19.000000, 29.000000)">
                <g id="Shape">
                    <path d="M19.4,14.8 C19.4,17.4 13.3,27.4 9.2,27.4 C5.1,27.4 4.7,17.4 4.7,14.8" fill="#F7910B"></path>
                    <path d="M23.9,0.9 C23.9,7.7 18.6,13.2 12,13.2 C5.4,13.2 0.1,7.7 0.1,0.9" fill="#C42260"></path>
                    <path d="M23.9,0.9 C23.9,3.2 18.6,5 12,5 C5.4,5 0.1,3.2 0.1,0.9" fill="#99144A"></path>
                    <path d="M12,13.2 C15.7,13.2 18.9,11.5 21.1,8.8 C19.7,7.3 17.8,6.3 15.6,6.3 C14.3,6.3 13,6.7 12,7.3 C10.9,6.7 9.7,6.3 8.4,6.3 C6.2,6.3 4.3,7.3 2.9,8.8 C5.1,11.4 8.3,13.2 12,13.2 Z" fill="#E2446E"></path>
                </g>
                <path d="M20.8,8.9 C20.8,11 16.9,25.2 12,25.2 C7.1,25.2 3.2,11 3.2,8.9 C3.2,6.8 7.1,8.3 12,8.3 C16.9,8.3 20.8,6.9 20.8,8.9 Z" id="Shape" fill="#E2446E"></path>
                <path d="M7,16.6 C6.6,16.7 5.9,15.2 5.4,13.3 C4.9,11.4 4.9,9.8 5.2,9.6 C5.6,9.4 5.9,9.3 6.4,11.2 C6.9,13.1 7.4,16.5 7,16.6 Z" id="Shape" fill="#EF86AE"></path>
                <path d="M13.1,16.2 C12.7,16.2 12.4,14.6 12.4,12.6 C12.4,10.6 12.7,9.1 13.1,9 C13.6,8.9 13.9,8.9 13.9,10.8 C13.8,12.8 13.5,16.2 13.1,16.2 Z" id="Shape" fill="#EF86AE"></path>
            </g>
        </g>
    </g>
</svg>
